X:0
T:What shall we do with the drunken sailor
G:dance song
M:4/4
L:1/8
Q:1/2=116
K:EDor
B2BB B2BB|B2E2 G2B2|A2AA A2AA|A2D2 F2A2|
B2BB B2BB|B2c2 d2e2|d2B2 A2F2|E4   E4 |]

and in Turkey:

